;FLAVOR:UltiGCode
;TIME:1370
;MATERIAL:2354
;MATERIAL2:0
;NOZZLE_DIAMETER:0.6
;MINX:97.137
;MINY:101.353
;MINZ:0.4
;MAXX:125.863
;MAXY:126.803
;MAXZ:25.15
;Generated with Cura_SteamEngine 4.8.0
M82 ;absolute extrusion mode
G0 F3000 Y50 ;avoid prime blob
G92 E0
G92 E0
G10
;LAYER_COUNT:166
;LAYER:0
M107
G0 F3927.3 X98.562 Y107.86 Z0.4
;TYPE:SKIRT
G11
G1 F1800 X99.029 Y107.448 E0.13203
G1 X99.545 Y107.099 E0.26409
G1 X100.101 Y106.819 E0.39606
G1 X100.689 Y106.613 E0.52815
G1 X101.298 Y106.483 E0.66017
G1 X101.865 Y106.434 E0.78082
G1 X102.323 Y106.423 E0.87794
G1 X120.368 Y106.422 E4.70348
G1 X121.067 Y106.432 E4.85169
G1 X121.688 Y106.481 E4.98375
G1 X122.298 Y106.609 E5.11588
G1 X122.886 Y106.814 E5.2479
G1 X123.443 Y107.093 E5.37997
G1 X123.96 Y107.44 E5.51197
G1 X124.428 Y107.851 E5.64401
G1 X124.84 Y108.319 E5.7762
G1 X125.188 Y108.835 E5.90814
G1 X125.468 Y109.392 E6.04031
G1 X125.674 Y109.98 E6.17239
G1 X125.803 Y110.589 E6.30437
G1 X125.851 Y111.144 E6.42246
G1 X125.863 Y111.626 E6.52468
G1 X125.863 Y121.272 E8.56963
G1 X125.854 Y121.999 E8.72377
G1 X125.806 Y122.62 E8.85581
G1 X125.679 Y123.23 E8.98791
G1 X125.475 Y123.819 E9.12005
G1 X125.198 Y124.376 E9.25193
G1 X124.851 Y124.894 E9.38411
G1 X124.441 Y125.363 E9.51617
G1 X123.975 Y125.775 E9.64804
G1 X123.459 Y126.125 E9.78022
G1 X122.903 Y126.405 E9.9122
G1 X122.315 Y126.612 E10.04435
G1 X121.706 Y126.742 E10.17637
G1 X121.135 Y126.792 E10.29789
G1 X120.678 Y126.803 E10.3948
G1 X102.636 Y126.803 E14.2197
G1 X101.938 Y126.794 E14.36769
G1 X101.317 Y126.746 E14.49974
G1 X100.708 Y126.619 E14.63162
G1 X100.119 Y126.414 E14.76384
G1 X99.562 Y126.137 E14.89572
G1 X99.044 Y125.79 E15.02789
G1 X98.575 Y125.379 E15.1601
G1 X98.163 Y124.913 E15.29196
G1 X97.814 Y124.397 E15.42403
G1 X97.534 Y123.84 E15.55619
G1 X97.327 Y123.253 E15.68815
G1 X97.197 Y122.644 E15.82016
G1 X97.148 Y122.07 E15.9423
G1 X97.137 Y121.606 E16.04069
G1 X97.137 Y111.898 E18.09879
G1 X97.146 Y111.222 E18.24211
G1 X97.195 Y110.601 E18.37417
G1 X97.322 Y109.992 E18.50606
G1 X97.526 Y109.403 E18.6382
G1 X97.804 Y108.846 E18.77018
G1 X98.152 Y108.329 E18.9023
G1 X98.562 Y107.86 E19.03436
G0 F3927.3 X99.081 Y108.097
G1 F1800 X99.54 Y107.73 E19.15895
G1 X100.045 Y107.429 E19.28359
G1 X100.586 Y107.2 E19.40813
G1 X101.154 Y107.046 E19.53289
G1 X101.88 Y106.964 E19.68778
G1 X102.323 Y106.953 E19.78173
G1 X120.361 Y106.952 E23.60579
G1 X121.06 Y106.962 E23.75399
G1 X121.646 Y107.011 E23.87865
G1 X122.22 Y107.138 E24.00329
G1 X122.771 Y107.342 E24.12785
G1 X123.29 Y107.619 E24.25256
G1 X123.766 Y107.964 E24.3772
G1 X124.191 Y108.37 E24.5018
G1 X124.557 Y108.83 E24.62642
G1 X124.857 Y109.335 E24.75095
G1 X125.087 Y109.876 E24.87558
G1 X125.24 Y110.444 E25.00028
G1 X125.321 Y111.159 E25.15283
G1 X125.333 Y111.626 E25.25187
G1 X125.333 Y121.266 E27.29555
G1 X125.324 Y121.993 E27.44969
G1 X125.276 Y122.579 E27.57433
G1 X125.15 Y123.153 E27.69892
G1 X124.947 Y123.704 E27.82341
G1 X124.671 Y124.224 E27.94821
G1 X124.328 Y124.7 E28.07259
G1 X123.922 Y125.126 E28.19735
G1 X123.463 Y125.493 E28.32194
G1 X122.958 Y125.795 E28.44668
G1 X122.417 Y126.025 E28.57131
G1 X121.85 Y126.179 E28.69587
G1 X121.12 Y126.262 E28.85163
G1 X120.678 Y126.273 E28.94536
G1 X102.643 Y126.273 E32.76878
G1 X101.945 Y126.264 E32.91677
G1 X101.359 Y126.216 E33.04142
G1 X100.785 Y126.09 E33.166
G1 X100.234 Y125.886 E33.29056
G1 X99.715 Y125.61 E33.41518
G1 X99.238 Y125.266 E33.53986
G1 X98.812 Y124.861 E33.66447
G1 X98.445 Y124.401 E33.78923
G1 X98.144 Y123.896 E33.91386
G1 X97.914 Y123.355 E34.03849
G1 X97.76 Y122.788 E34.16305
G1 X97.678 Y122.056 E34.3192
G1 X97.667 Y121.606 E34.41463
G1 X97.667 Y111.905 E36.47124
G1 X97.676 Y111.229 E36.61457
G1 X97.724 Y110.643 E36.73921
G1 X97.851 Y110.069 E36.86384
G1 X98.054 Y109.518 E36.98833
G1 X98.331 Y108.999 E37.11305
G1 X98.675 Y108.522 E37.23773
G1 X99.081 Y108.097 E37.36233
G0 F3927.3 X99.197 Y108.73
G1 F1800 X99.597 Y108.351 E37.47915
G1 X100.047 Y108.034 E37.59585
G1 X100.538 Y107.785 E37.71256
G1 X101.06 Y107.61 E37.82928
G1 X101.602 Y107.513 E37.94601
G1 X102.217 Y107.484 E38.07653
G1 X120.353 Y107.482 E41.92136
G1 X121.052 Y107.492 E42.06957
G1 X121.601 Y107.54 E42.1864
G1 X122.137 Y107.667 E42.30318
G1 X122.649 Y107.87 E42.41994
G1 X123.126 Y108.145 E42.53667
G1 X123.558 Y108.486 E42.65334
G1 X123.937 Y108.886 E42.77016
G1 X124.253 Y109.336 E42.88674
G1 X124.501 Y109.828 E43.00354
G1 X124.676 Y110.35 E43.12026
G1 X124.772 Y110.892 E43.23695
G1 X124.801 Y111.514 E43.36896
G1 X124.803 Y111.626 E43.39271
G1 X124.803 Y121.259 E45.4349
G1 X124.794 Y121.986 E45.58904
G1 X124.747 Y122.535 E45.70585
G1 X124.621 Y123.071 E45.82258
G1 X124.419 Y123.583 E45.93927
G1 X124.145 Y124.061 E46.05607
G1 X123.805 Y124.494 E46.17279
G1 X123.406 Y124.873 E46.28945
G1 X122.956 Y125.19 E46.40615
G1 X122.465 Y125.439 E46.52286
G1 X121.943 Y125.615 E46.63964
G1 X121.401 Y125.713 E46.75641
G1 X120.784 Y125.742 E46.88736
G1 X102.65 Y125.743 E50.73177
G1 X101.952 Y125.734 E50.87975
G1 X101.403 Y125.687 E50.99657
G1 X100.867 Y125.561 E51.1133
G1 X100.355 Y125.359 E51.22998
G1 X99.878 Y125.084 E51.34671
G1 X99.445 Y124.744 E51.46342
G1 X99.066 Y124.345 E51.58009
G1 X98.749 Y123.895 E51.69678
G1 X98.5 Y123.403 E51.81368
G1 X98.325 Y122.881 E51.9304
G1 X98.227 Y122.339 E52.04717
G1 X98.198 Y121.709 E52.18087
G1 X98.197 Y111.912 E54.25783
G1 X98.206 Y111.236 E54.40116
G1 X98.254 Y110.688 E54.51778
G1 X98.38 Y110.152 E54.63451
G1 X98.582 Y109.64 E54.7512
G1 X98.856 Y109.162 E54.868
G1 X99.197 Y108.73 E54.98468
G0 F3927.3 X99.717 Y108.954
G1 F1800 X100.109 Y108.626 E55.09304
G1 X100.547 Y108.364 E55.20124
G1 X101.021 Y108.173 E55.30958
G1 X101.518 Y108.058 E55.41772
G1 X102.232 Y108.014 E55.56938
G1 X120.346 Y108.012 E59.40955
G1 X121.045 Y108.022 E59.55775
G1 X121.553 Y108.07 E59.66593
G1 X122.048 Y108.195 E59.77416
G1 X122.517 Y108.397 E59.88242
G1 X122.949 Y108.669 E59.99064
G1 X123.334 Y109.006 E60.09912
G1 X123.661 Y109.398 E60.20734
G1 X123.923 Y109.836 E60.31554
G1 X124.113 Y110.31 E60.4238
G1 X124.228 Y110.808 E60.53215
G1 X124.272 Y111.53 E60.6855
G1 X124.273 Y121.252 E62.74657
G1 X124.264 Y121.979 E62.9007
G1 X124.218 Y122.488 E63.00905
G1 X124.093 Y122.983 E63.11728
G1 X123.892 Y123.453 E63.22565
G1 X123.62 Y123.885 E63.33388
G1 X123.285 Y124.27 E63.44207
G1 X122.893 Y124.598 E63.55043
G1 X122.456 Y124.861 E63.65856
G1 X121.982 Y125.052 E63.7669
G1 X121.485 Y125.168 E63.87509
G1 X120.77 Y125.212 E64.02696
G1 X102.657 Y125.213 E67.86692
G1 X101.959 Y125.204 E68.0149
G1 X101.45 Y125.157 E68.12327
G1 X100.955 Y125.032 E68.23151
G1 X100.486 Y124.831 E68.33968
G1 X100.053 Y124.559 E68.44808
G1 X99.669 Y124.224 E68.55612
G1 X99.341 Y123.832 E68.66448
G1 X99.078 Y123.394 E68.77279
G1 X98.887 Y122.92 E68.88112
G1 X98.772 Y122.423 E68.98927
G1 X98.728 Y121.694 E69.1441
G1 X98.727 Y111.92 E71.21619
G1 X98.736 Y111.244 E71.35951
G1 X98.783 Y110.735 E71.46788
G1 X98.908 Y110.24 E71.57612
G1 X99.11 Y109.771 E71.68437
G1 X99.381 Y109.338 E71.79267
G1 X99.717 Y108.954 E71.90084
G10
;MESH:TaylorD.stl
G0 F3927.3 X102.8 Y110.457
G0 X102.801 Y112.087
G0 X119.683 Y112.867
;TYPE:WALL-INNER
G11
G1 F1800 X119.683 Y120.623 E73.54511
G1 X103.317 Y120.623 E77.0147
G1 X103.317 Y112.603 E78.71494
G1 X119.418 Y112.602 E82.12835
G1 X119.683 Y112.602 E82.18453
G1 X119.683 Y112.867 E82.22089
G0 F3927.3 X120.213 Y112.337
G1 F1800 X120.213 Y121.153 E84.08988
G1 X102.787 Y121.153 E87.7842
G1 X102.787 Y112.073 E89.70916
G1 X119.948 Y112.072 E93.34729
G1 X120.213 Y112.072 E93.40347
G1 X120.213 Y112.337 E93.43983
G0 F3927.3 X120.708 Y111.842
;TYPE:WALL-OUTER
G1 F1800 X120.708 Y121.648 E95.5187
G1 X102.292 Y121.648 E99.42289
G1 X102.292 Y111.578 E101.55773
G1 X120.443 Y111.577 E105.40574
G1 X120.708 Y111.577 E105.46192
G1 X120.708 Y111.842 E105.49828
G0 F3927.3 X120.708 Y112.142
G0 X120.113 Y112.142
G0 X119.163 Y113.122
;TYPE:SKIN
G1 F1800 X119.163 Y120.103 E106.97825
G1 X103.837 Y120.103 E110.22736
G1 X103.837 Y113.123 E111.70712
G1 X119.163 Y113.122 E114.95624
G0 F3927.3 X118.607 Y113.36
G1 F1800 X118.925 Y113.678 E115.05158
G0 F3927.3 X118.925 Y114.428
G1 F1800 X117.857 Y113.36 E115.37178
G0 F3927.3 X117.108 Y113.36
G1 F1800 X118.925 Y115.177 E115.91654
G0 F3927.3 X118.925 Y115.927
G1 F1800 X116.358 Y113.36 E116.68616
G0 F3927.3 X115.609 Y113.36
G1 F1800 X118.925 Y116.676 E117.68034
G0 F3927.3 X118.925 Y117.426
G1 F1800 X114.859 Y113.36 E118.89938
G0 F3927.3 X114.11 Y113.36
G1 F1800 X118.925 Y118.175 E120.34298
G0 F3927.3 X118.925 Y118.925
G1 F1800 X113.36 Y113.36 E122.01144
G0 F3927.3 X112.61 Y113.36
G1 F1800 X118.925 Y119.674 E123.90461
G0 F3927.3 X118.365 Y119.864
G1 F1800 X111.861 Y113.36 E125.8546
G0 F3927.3 X111.111 Y113.36
G1 F1800 X117.615 Y119.864 E127.80458
G0 F3927.3 X116.866 Y119.864
G1 F1800 X110.362 Y113.36 E129.75457
G0 F3927.3 X109.612 Y113.36
G1 F1800 X116.116 Y119.864 E131.70456
G0 F3927.3 X115.367 Y119.864
G1 F1800 X108.863 Y113.36 E133.65454
G0 F3927.3 X108.113 Y113.36
G1 F1800 X114.617 Y119.864 E135.60453
G0 F3927.3 X113.868 Y119.864
G1 F1800 X107.364 Y113.36 E137.55451
G0 F3927.3 X106.614 Y113.36
G1 F1800 X113.118 Y119.864 E139.5045
G0 F3927.3 X112.369 Y119.864
G1 F1800 X105.865 Y113.36 E141.45448
G0 F3927.3 X105.115 Y113.36
G1 F1800 X111.619 Y119.864 E143.40447
G0 F3927.3 X110.87 Y119.864
G1 F1800 X104.366 Y113.36 E145.35445
G0 F3927.3 X104.074 Y113.818
G1 F1800 X110.12 Y119.864 E147.16713
G0 F3927.3 X109.371 Y119.864
G1 F1800 X104.074 Y114.568 E148.75509
G0 F3927.3 X104.074 Y115.317
G1 F1800 X108.621 Y119.864 E150.11834
G0 F3927.3 X107.871 Y119.864
G1 F1800 X104.074 Y116.067 E151.25673
G0 F3927.3 X104.074 Y116.816
G1 F1800 X107.122 Y119.864 E152.17056
G0 F3927.3 X106.372 Y119.864
G1 F1800 X104.074 Y117.566 E152.85953
G0 F3927.3 X104.074 Y118.315
G1 F1800 X105.623 Y119.864 E153.32394
G0 F3927.3 X104.873 Y119.864
G1 F1800 X104.074 Y119.065 E153.56349
G1 X103.98 Y118.971
;MESH:NONMESH
G0 F600 X103.98 Y118.971 Z0.55
G0 F3927.3 X119.683 Y112.173
G0 X119.683 Y111.385
;TIME_ELAPSED:30.160743
;LAYER:1
M106 S255
;TYPE:WALL-INNER
;MESH:TaylorD.stl
G1 F2100 X119.683 Y120.623 E154.29791
G1 X103.317 Y120.623 E155.59901
G1 X103.317 Y111.121 E156.35442
G1 X119.418 Y111.12 E157.63445
G1 X119.683 Y111.12 E157.65552
G1 X119.683 Y111.385 E157.66915
G0 F5563.6 X120.213 Y110.855
G1 F2100 X120.213 Y121.153 E158.48784
G1 X102.787 Y121.153 E159.87321
G1 X102.787 Y110.591 E160.71289
G1 X119.948 Y110.59 E162.07719
G1 X120.213 Y110.59 E162.09825
G1 X120.213 Y110.855 E162.11189
G0 F5563.6 X120.708 Y110.36
;TYPE:WALL-OUTER
G1 F1650 X120.708 Y121.648 E163.00928
G1 X102.292 Y121.648 E164.47336
G1 X102.292 Y110.096 E165.39174
G1 X120.443 Y110.095 E166.83475
G1 X120.708 Y110.095 E166.85581
G1 X120.708 Y110.36 E166.86945
G0 F5563.6 X120.708 Y110.66
G0 X120.113 Y110.66
G0 X119.163 Y111.64
;TYPE:SKIN
G1 F1500 X119.163 Y120.103 E167.54226
G1 X103.837 Y120.103 E168.76067
G1 X103.837 Y111.641 E169.4334
G1 X119.163 Y111.64 E170.65182
G0 F5563.6 X118.487 Y119.864
G1 F1500 X118.924 Y119.426 E170.70101
G0 F5563.6 X118.924 Y118.677
G1 F1500 X117.737 Y119.864 E170.83446
G0 F5563.6 X116.987 Y119.864
G1 F1500 X118.924 Y117.927 E171.05224
G0 F5563.6 X118.924 Y117.178
G1 F1500 X116.238 Y119.864 E171.35422
G0 F5563.6 X115.488 Y119.864
G1 F1500 X118.924 Y116.428 E171.74053
G0 F5563.6 X118.924 Y115.679
G1 F1500 X114.739 Y119.864 E172.21105
G0 F5563.6 X113.989 Y119.864
G1 F1500 X118.924 Y114.93 E172.76584
G0 F5563.6 X118.924 Y114.18
G1 F1500 X113.24 Y119.864 E173.40489
G0 F5563.6 X112.49 Y119.864
G1 F1500 X118.924 Y113.431 E174.12821
G0 F5563.6 X118.924 Y112.681
G1 F1500 X111.741 Y119.864 E174.93579
G0 F5563.6 X110.991 Y119.864
G1 F1500 X118.924 Y111.932 E175.82764
G0 F5563.6 X118.228 Y111.878
G1 F1500 X110.242 Y119.864 E176.72551
G0 F5563.6 X109.492 Y119.864
G1 F1500 X117.478 Y111.878 E177.62338
G0 F5563.6 X116.729 Y111.878
G1 F1500 X108.743 Y119.864 E178.52124
G0 F5563.6 X107.993 Y119.864
G1 F1500 X115.979 Y111.878 E179.41911
G0 F5563.6 X115.23 Y111.878
G1 F1500 X107.244 Y119.864 E180.31697
G0 F5563.6 X106.494 Y119.864
G1 F1500 X114.48 Y111.878 E181.21484
G0 F5563.6 X113.731 Y111.878
G1 F1500 X105.744 Y119.864 E182.11276
G0 F5563.6 X104.995 Y119.864
G1 F1500 X112.981 Y111.878 E183.01063
G0 F5563.6 X112.231 Y111.878
G1 F1500 X104.245 Y119.864 E183.90849
G0 F5563.6 X104.074 Y119.286
G1 F1500 X111.482 Y111.878 E184.74137
G0 F5563.6 X110.732 Y111.878
G1 F1500 X104.074 Y118.536 E185.48993
G0 F5563.6 X104.074 Y117.787
G1 F1500 X109.983 Y111.878 E186.15428
G0 F5563.6 X109.233 Y111.878
G1 F1500 X104.074 Y117.037 E186.73431
G0 F5563.6 X104.074 Y116.287
G1 F1500 X108.484 Y111.878 E187.23007
G0 F5563.6 X107.734 Y111.878
G1 F1500 X104.074 Y115.538 E187.64156
G0 F5563.6 X104.074 Y114.788
G1 F1500 X106.985 Y111.878 E187.96879
G0 F5563.6 X106.235 Y111.878
G1 F1500 X104.074 Y114.039 E188.21175
G0 F5563.6 X104.074 Y113.289
G1 F1500 X105.486 Y111.878 E188.37045
G0 F5563.6 X104.736 Y111.878
G1 F1500 X104.074 Y112.54 E188.44487
;MESH:NONMESH
G0 F600 X104.074 Y112.54 Z0.7
G0 F5563.6 X119.683 Y110.804
;TIME_ELAPSED:47.610216
;LAYER:2
;TYPE:WALL-INNER
;MESH:TaylorD.stl
G1 F2400 X119.683 Y120.623 E189.22548
G1 X103.317 Y120.623 E190.52658
G1 X103.317 Y110.54 E191.32818
G1 X119.418 Y110.539 E192.60821
G1 X119.683 Y110.539 E192.62928
G1 X119.683 Y110.804 E192.64291
G0 F7200 X120.213 Y110.274
G1 F2400 X120.213 Y121.153 E193.50779
G1 X102.787 Y121.153 E194.89316
G1 X102.787 Y110.01 E195.77903
G1 X119.948 Y110.009 E197.14333
G1 X120.213 Y110.009 E197.16439
G1 X120.213 Y110.274 E197.17803
G0 F7200 X120.708 Y109.779
;TYPE:WALL-OUTER
G1 F1500 X120.708 Y121.648 E198.12161
G1 X102.292 Y121.648 E199.58569
G1 X102.292 Y109.515 E200.55026
G1 X120.443 Y109.514 E201.99326
G1 X120.708 Y109.514 E202.01433
G1 X120.708 Y109.779 E202.02797
G0 F7200 X120.708 Y110.079
G0 X120.113 Y110.079
G0 X119.163 Y111.059
;TYPE:SKIN
G1 F1200 X119.163 Y120.103 E202.74696
G1 X103.837 Y120.103 E203.96538
G1 X103.837 Y111.06 E204.6843
G1 X119.163 Y111.059 E205.90272
G0 F7200 X118.924 Y111.429
G1 F1200 X118.792 Y111.297 E205.91756
G0 F7200 X118.042 Y111.297
G1 F1200 X118.924 Y112.178 E206.01666
G0 F7200 X118.924 Y112.928
G1 F1200 X117.293 Y111.297 E206.20004
G0 F7200 X116.543 Y111.297
G1 F1200 X118.924 Y113.678 E206.46773
G0 F7200 X118.924 Y114.427
G1 F1200 X115.794 Y111.297 E206.81964
G0 F7200 X115.044 Y111.297
G1 F1200 X118.924 Y115.177 E207.25587
G0 F7200 X118.925 Y115.927
G1 F1200 X114.295 Y111.297 E207.77642
G0 F7200 X113.545 Y111.297
G1 F1200 X118.925 Y116.676 E208.38124
G0 F7200 X118.925 Y117.426
G1 F1200 X112.796 Y111.297 E209.07032
G0 F7200 X112.046 Y111.297
G1 F1200 X118.925 Y118.175 E209.84367
G0 F7200 X118.925 Y118.925
G1 F1200 X111.297 Y111.297 E210.70128
G0 F7200 X110.547 Y111.297
G1 F1200 X118.925 Y119.674 E211.64317
G0 F7200 X118.365 Y119.864
G1 F1200 X109.798 Y111.297 E212.60635
G0 F7200 X109.048 Y111.297
G1 F1200 X117.615 Y119.864 E213.56954
G0 F7200 X116.866 Y119.864
G1 F1200 X108.299 Y111.297 E214.53273
G0 F7200 X107.549 Y111.297
G1 F1200 X116.116 Y119.864 E215.49592
G0 F7200 X115.367 Y119.864
G1 F1200 X106.799 Y111.297 E216.45916
G0 F7200 X106.05 Y111.297
G1 F1200 X114.617 Y119.864 E217.42235
G0 F7200 X113.868 Y119.864
G1 F1200 X105.3 Y111.297 E218.38559
G0 F7200 X104.551 Y111.297
G1 F1200 X113.118 Y119.864 E219.34878
G0 F7200 X112.369 Y119.864
G1 F1200 X104.074 Y111.57 E220.28133
G0 F7200 X104.074 Y112.319
G1 F1200 X111.619 Y119.864 E221.12961
G0 F7200 X110.87 Y119.864
G1 F1200 X104.074 Y113.069 E221.89363
G0 F7200 X104.074 Y113.818
G1 F1200 X110.12 Y119.864 E222.57338
G0 F7200 X109.371 Y119.864
G1 F1200 X104.074 Y114.568 E223.16887
G0 F7200 X104.074 Y115.317
G1 F1200 X108.621 Y119.864 E223.68009
G0 F7200 X107.871 Y119.864
G1 F1200 X104.074 Y116.067 E224.10699
G0 F7200 X104.074 Y116.816
G1 F1200 X107.122 Y119.864 E224.44967
G0 F7200 X106.372 Y119.864
G1 F1200 X104.074 Y117.566 E224.70804
G0 F7200 X104.074 Y118.315
G1 F1200 X105.623 Y119.864 E224.88219
G0 F7200 X104.873 Y119.864
G1 F1200 X104.074 Y119.065 E224.97202
G1 X103.98 Y118.971
;MESH:NONMESH
G0 F600 X103.98 Y118.971 Z0.85
