;FLAVOR:UltiGCode
;TIME:6538
;MATERIAL:16602
;MATERIAL2:0
;NOZZLE_DIAMETER:0.6
;MINX:82.146
;MINY:95.8
;MINZ:0.4
;MAXX:141.658
;MAXY:127.2
;MAXZ:30.4
;Generated with Cura_SteamEngine 4.8.0
M82 ;absolute extrusion mode
G0 F3000 Y50 ;avoid prime blob
G92 E0
G92 E0
G10
;LAYER_COUNT:201
;LAYER:0
M107
G0 F3927.3 X92.609 Y97.415 Z0.4
;TYPE:SKIRT
G11
G1 F1800 X93.009 Y97.037 E0.11667
G1 X93.46 Y96.721 E0.23342
G1 X93.952 Y96.473 E0.35023
G1 X94.474 Y96.299 E0.46688
G1 X95.016 Y96.202 E0.58361
G1 X95.576 Y96.176 E0.70245
G1 X95.687 Y96.174 E0.72599
G1 X111.992 Y96.18 E4.18265
G1 X126.475 Y96.172 E7.25305
G1 X137.215 Y96.173 E9.52993
G1 X137.907 Y96.183 E9.67664
G1 X138.455 Y96.231 E9.79327
G1 X138.991 Y96.358 E9.91004
G1 X139.503 Y96.561 E10.02681
G1 X139.98 Y96.836 E10.14353
G1 X140.413 Y97.177 E10.26038
G1 X140.791 Y97.577 E10.37705
G1 X141.107 Y98.028 E10.4938
G1 X141.355 Y98.519 E10.61041
G1 X141.53 Y99.042 E10.72733
G1 X141.626 Y99.584 E10.84403
G1 X141.655 Y100.181 E10.97074
G1 X141.657 Y100.299 E10.99576
G1 X141.658 Y122.232 E15.64555
G1 X141.649 Y122.946 E15.79693
G1 X141.602 Y123.494 E15.91354
G1 X141.476 Y124.031 E16.03047
G1 X141.274 Y124.543 E16.14716
G1 X141 Y125.02 E16.26378
G1 X140.66 Y125.453 E16.38049
G1 X140.26 Y125.832 E16.49731
G1 X139.81 Y126.15 E16.61413
G1 X139.319 Y126.399 E16.73084
G1 X138.797 Y126.574 E16.84756
G1 X138.255 Y126.672 E16.96433
G1 X137.548 Y126.702 E17.11434
G1 X125.955 Y126.703 E19.57206
G1 X109.761 Y126.694 E23.00519
G1 X96.042 Y126.702 E25.91362
G1 X95.371 Y126.692 E26.05589
G1 X94.823 Y126.643 E26.17252
G1 X94.287 Y126.516 E26.2893
G1 X93.775 Y126.313 E26.40607
G1 X93.298 Y126.038 E26.52279
G1 X92.745 Y125.58 E26.67502
G1 X92.725 Y125.56 E26.68101
G1 X92.364 Y125.144 E26.79778
G1 X92.068 Y124.68 E26.91446
G1 X91.843 Y124.177 E27.03128
G1 X91.692 Y123.648 E27.14791
G1 X91.615 Y122.986 E27.2892
G1 X91.604 Y122.563 E27.3789
G1 X91.604 Y100.589 E32.03739
G1 X91.614 Y99.92 E32.17923
G1 X91.663 Y99.372 E32.29587
G1 X91.79 Y98.836 E32.41265
G1 X91.993 Y98.324 E32.52942
G1 X92.268 Y97.847 E32.64614
G1 X92.609 Y97.415 E32.76282
G0 F3927.3 X93.129 Y97.64
G1 F1800 X93.521 Y97.313 E32.87104
G1 X93.96 Y97.051 E32.97943
G1 X94.434 Y96.861 E33.08769
G1 X94.932 Y96.747 E33.19599
G1 X95.592 Y96.705 E33.3362
G1 X111.992 Y96.71 E36.813
G1 X126.475 Y96.702 E39.88339
G1 X137.207 Y96.703 E42.15858
G1 X137.899 Y96.713 E42.3053
G1 X138.408 Y96.761 E42.41368
G1 X138.903 Y96.887 E42.52197
G1 X139.372 Y97.088 E42.63014
G1 X139.804 Y97.361 E42.73848
G1 X140.188 Y97.697 E42.84665
G1 X140.515 Y98.089 E42.95488
G1 X140.777 Y98.528 E43.06326
G1 X140.968 Y99.001 E43.1714
G1 X141.082 Y99.499 E43.27971
G1 X141.125 Y100.197 E43.42797
G1 X141.127 Y100.299 E43.44959
G1 X141.128 Y122.225 E48.09791
G1 X141.119 Y122.939 E48.24929
G1 X141.072 Y123.448 E48.35765
G1 X140.947 Y123.943 E48.46589
G1 X140.747 Y124.412 E48.57398
G1 X140.475 Y124.845 E48.68238
G1 X140.139 Y125.23 E48.79072
G1 X139.748 Y125.558 E48.89891
G1 X139.31 Y125.82 E49.00711
G1 X138.836 Y126.012 E49.11553
G1 X138.339 Y126.127 E49.22368
G1 X137.534 Y126.172 E49.39461
G1 X125.955 Y126.173 E51.84935
G1 X109.761 Y126.164 E55.28248
G1 X96.05 Y126.172 E58.18921
G1 X95.379 Y126.162 E58.33148
G1 X94.871 Y126.114 E58.43966
G1 X94.376 Y125.988 E58.54794
G1 X93.907 Y125.786 E58.6562
G1 X93.475 Y125.514 E58.76443
G1 X93.099 Y125.186 E58.87021
G1 X92.768 Y124.797 E58.97849
G1 X92.5 Y124.362 E59.08681
G1 X92.304 Y123.891 E59.19496
G1 X92.184 Y123.394 E59.30335
G1 X92.135 Y122.657 E59.45994
G1 X92.134 Y100.597 E64.13666
G1 X92.144 Y99.928 E64.2785
G1 X92.192 Y99.42 E64.38668
G1 X92.318 Y98.925 E64.49497
G1 X92.52 Y98.456 E64.60322
G1 X92.793 Y98.024 E64.71156
G1 X93.129 Y97.64 E64.81973
G10
;MESH:Taylor3dVan.stl
G0 F3927.3 X96.208 Y99.147
G0 X96.208 Y100.777
G0 X109.818 Y121.574
;TYPE:WALL-INNER
G11
G1 F1800 X96.989 Y121.582 E67.53948
G1 X96.724 Y121.582 E67.59566
G1 X96.724 Y121.317 E67.63202
G1 X96.724 Y101.558 E71.82093
G1 X96.724 Y101.293 E71.87711
G1 X96.989 Y101.293 E71.91347
G1 X111.951 Y101.3 E75.08541
G1 X126.475 Y101.292 E78.1645
G1 X136.537 Y101.293 E80.29764
G1 X136.538 Y121.318 E84.54294
G1 X136.538 Y121.583 E84.59912
G1 X136.273 Y121.583 E84.63548
G1 X125.957 Y121.583 E86.82247
G1 X109.818 Y121.574 E90.24394
G0 F3927.3 X109.818 Y122.104
G1 F1800 X96.459 Y122.112 E93.07605
G1 X96.194 Y122.112 E93.13223
G1 X96.194 Y121.847 E93.16859
G1 X96.194 Y101.028 E97.58222
G1 X96.194 Y100.763 E97.6384
G1 X96.459 Y100.763 E97.67476
G1 X111.951 Y100.77 E100.95906
G1 X126.475 Y100.762 E104.03815
G1 X137.067 Y100.763 E106.28365
G1 X137.068 Y121.848 E110.75367
G1 X137.068 Y122.113 E110.80985
G1 X136.803 Y122.113 E110.84621
G1 X125.957 Y122.113 E113.14556
G1 X109.818 Y122.104 E116.56703
G0 F3927.3 X109.818 Y122.599
;TYPE:WALL-OUTER
G1 F1800 X95.964 Y122.607 E119.50408
G1 X95.699 Y122.607 E119.56026
G1 X95.699 Y122.342 E119.59662
G1 X95.699 Y100.533 E124.22013
G1 X95.699 Y100.268 E124.27631
G1 X95.964 Y100.268 E124.31266
G1 X111.951 Y100.275 E127.70191
G1 X126.475 Y100.267 E130.781
G1 X137.562 Y100.268 E133.13144
G1 X137.563 Y122.343 E137.81134
G1 X137.563 Y122.608 E137.86752
G1 X137.298 Y122.608 E137.90388
G1 X125.957 Y122.608 E140.30817
G1 X109.818 Y122.599 E143.72964
G0 F3927.3 X109.518 Y122.599
G0 X109.518 Y122.004
G0 X109.818 Y121.054
;TYPE:SKIN
G1 F1800 X97.244 Y121.062 E146.39533
G1 X97.244 Y101.813 E150.47611
G1 X111.951 Y101.82 E153.594
G1 X126.475 Y101.812 E156.67309
G1 X136.017 Y101.813 E158.69599
G1 X136.018 Y121.063 E162.77699
G1 X125.957 Y121.063 E164.90992
G1 X109.818 Y121.054 E168.33139
G0 F3927.3 X97.587 Y120.822
G1 F1800 X97.481 Y120.717 E168.36302
G0 F3927.3 X97.481 Y119.967
G1 F1800 X98.336 Y120.822 E168.61936
G0 F3927.3 X99.085 Y120.821
G1 F1800 X97.481 Y119.218 E169.10011
G0 F3927.3 X97.481 Y118.468
G1 F1800 X99.834 Y120.821 E169.80557
G0 F3927.3 X100.583 Y120.82
G1 F1800 X97.481 Y117.719 E170.73545
G0 F3927.3 X97.481 Y116.969
G1 F1800 X101.332 Y120.82 E171.89003
G0 F3927.3 X102.081 Y120.819
G1 F1800 X97.481 Y116.22 E173.26902
G0 F3927.3 X97.481 Y115.47
G1 F1800 X102.83 Y120.819 E174.87272
G0 F3927.3 X103.579 Y120.819
G1 F1800 X97.481 Y114.721 E176.70098
G0 F3927.3 X97.481 Y113.971
G1 F1800 X104.328 Y120.818 E178.7538
G0 F3927.3 X105.077 Y120.817
G1 F1800 X97.481 Y113.221 E181.03118
G0 F3927.3 X97.481 Y112.472
G1 F1800 X105.826 Y120.816 E183.53298
G0 F3927.3 X106.575 Y120.816
G1 F1800 X97.481 Y111.722 E186.25948
G0 F3927.3 X97.481 Y110.973
G1 F1800 X107.324 Y120.816 E189.21054
G0 F3927.3 X108.073 Y120.815
G1 F1800 X97.481 Y110.223 E192.38616
G0 F3927.3 X97.481 Y109.474
G1 F1800 X108.822 Y120.814 E195.78619
G0 F3927.3 X109.571 Y120.814
G1 F1800 X97.481 Y108.724 E199.41094
G0 F3927.3 X97.481 Y107.975
G1 F1800 X110.321 Y120.814 E203.26039
G0 F3927.3 X111.071 Y120.815
G1 F1800 X97.481 Y107.225 E207.33485
G0 F3927.3 X97.481 Y106.476
G1 F1800 X111.821 Y120.815 E211.63402
G0 F3927.3 X112.571 Y120.816
G1 F1800 X97.481 Y105.726 E216.15821
G0 F3927.3 X97.481 Y104.977
G1 F1800 X113.321 Y120.816 E220.9071
G0 F3927.3 X114.071 Y120.816
G1 F1800 X97.481 Y104.227 E225.88085
G0 F3927.3 X97.481 Y103.478
G1 F1800 X114.821 Y120.817 E231.07946
G0 F3927.3 X115.571 Y120.818
G1 F1800 X97.481 Y102.728 E236.50309
G0 F3927.3 X97.553 Y102.051
G1 F1800 X116.321 Y120.819 E242.12998
G0 F3927.3 X117.071 Y120.819
G1 F1800 X98.303 Y102.051 E247.75688
G0 F3927.3 X99.053 Y102.051
G1 F1800 X117.821 Y120.819 E253.38377
G0 F3927.3 X118.571 Y120.82
G1 F1800 X99.803 Y102.051 E259.01082
G0 F3927.3 X100.553 Y102.052
G1 F1800 X119.321 Y120.82 E264.63771
G0 F3927.3 X120.071 Y120.821
G1 F1800 X101.302 Y102.052 E270.26491
G0 F3927.3 X102.053 Y102.053
G1 F1800 X120.821 Y120.821 E275.8918
G0 F3927.3 X121.571 Y120.821
G1 F1800 X102.803 Y102.053 E281.5187
G0 F3927.3 X103.552 Y102.053
G1 F1800 X122.321 Y120.822 E287.14589
G0 F3927.3 X123.071 Y120.823
G1 F1800 X104.303 Y102.054 E292.77294
G0 F3927.3 X105.052 Y102.054
G1 F1800 X123.822 Y120.824 E298.40044
G0 F3927.3 X124.571 Y120.824
G1 F1800 X105.802 Y102.055 E304.02763
G0 F3927.3 X106.552 Y102.055
G1 F1800 X125.321 Y120.824 E309.65483
G0 F3927.3 X126.072 Y120.825
G1 F1800 X107.302 Y102.056 E315.28217
G0 F3927.3 X108.052 Y102.056
G1 F1800 X126.821 Y120.825 E320.90937
G0 F3927.3 X127.571 Y120.825
G1 F1800 X108.802 Y102.056 E326.53656
G0 F3927.3 X109.552 Y102.057
G1 F1800 X128.32 Y120.825 E332.16346
G0 F3927.3 X129.07 Y120.825
G1 F1800 X110.302 Y102.057 E337.79035
G0 F3927.3 X111.052 Y102.058
G1 F1800 X129.819 Y120.825 E343.41695
G0 F3927.3 X130.569 Y120.825
G1 F1800 X111.802 Y102.058 E349.04354
G0 F3927.3 X112.551 Y102.058
G1 F1800 X131.318 Y120.825 E354.67014
G0 F3927.3 X132.068 Y120.825
G1 F1800 X113.3 Y102.057 E360.29704
G0 F3927.3 X114.049 Y102.057
G1 F1800 X132.817 Y120.825 E365.92393
G0 F3927.3 X133.567 Y120.825
G1 F1800 X114.798 Y102.056 E371.55113
G0 F3927.3 X115.548 Y102.056
G1 F1800 X134.317 Y120.825 E377.17832
G0 F3927.3 X135.066 Y120.825
G1 F1800 X116.297 Y102.056 E382.80552
G0 F3927.3 X117.045 Y102.055
G1 F1800 X135.779 Y120.788 E388.42207
G0 F3927.3 X135.779 Y120.039
G1 F1800 X117.795 Y102.055 E393.81391
G0 F3927.3 X118.544 Y102.054
G1 F1800 X135.779 Y119.289 E398.98119
G0 F3927.3 X135.779 Y118.54
G1 F1800 X119.293 Y102.053 E403.92406
G0 F3927.3 X120.042 Y102.053
G1 F1800 X135.779 Y117.79 E408.64223
G0 F3927.3 X135.779 Y117.041
G1 F1800 X120.791 Y102.053 E413.13583
G0 F3927.3 X121.541 Y102.053
G1 F1800 X135.779 Y116.291 E417.40457
G0 F3927.3 X135.779 Y115.541
G1 F1800 X122.289 Y102.052 E421.4489
G0 F3927.3 X123.038 Y102.051
G1 F1800 X135.779 Y114.792 E425.26882
G0 F3927.3 X135.779 Y114.042
G1 F1800 X123.788 Y102.051 E428.86388
G0 F3927.3 X124.537 Y102.051
G1 F1800 X135.779 Y113.293 E432.23438
G0 F3927.3 X135.779 Y112.543
G1 F1800 X125.285 Y102.05 E435.38047
G0 F3927.3 X126.035 Y102.05
G1 F1800 X135.779 Y111.794 E438.30185
G0 F3927.3 X135.779 Y111.044
G1 F1800 X126.784 Y102.05 E440.99852
G0 F3927.3 X127.534 Y102.05
G1 F1800 X135.779 Y110.295 E443.47049
G0 F3927.3 X135.779 Y109.545
G1 F1800 X128.284 Y102.05 E445.71759
G0 F3927.3 X129.033 Y102.05
G1 F1800 X135.779 Y108.796 E447.74013
G0 F3927.3 X135.779 Y108.046
G1 F1800 X129.783 Y102.05 E449.53781
G0 F3927.3 X130.532 Y102.05
G1 F1800 X135.779 Y107.297 E451.11093
G0 F3927.3 X135.779 Y106.547
G1 F1800 X131.282 Y102.051 E452.45904
G0 F3927.3 X132.032 Y102.051
G1 F1800 X135.779 Y105.798 E453.58244
G0 F3927.3 X135.779 Y105.048
G1 F1800 X132.781 Y102.051 E454.48113
G0 F3927.3 X133.531 Y102.051
G1 F1800 X135.779 Y104.298 E455.15496
G0 F3927.3 X135.779 Y103.549
G1 F1800 X134.28 Y102.051 E455.60423
G0 F3927.3 X135.03 Y102.051
G1 F1800 X135.779 Y102.799 E455.82864
;MESH:NONMESH
G0 F600 X135.779 Y102.799 Z0.55
G0 F3927.3 X104.748 Y122.006
G0 X104.748 Y122.123
;TIME_ELAPSED:79.297649
;LAYER:1
M106 S255
;TYPE:WALL-INNER
;MESH:Taylor3dVan.stl
G1 F2100 X96.823 Y122.126 E456.45868
G1 X96.558 Y122.126 E456.47974
G1 X96.558 Y121.861 E456.49338
G1 X96.558 Y100.753 E458.17146
G1 X136.419 Y100.752 E461.34041
G1 X136.684 Y100.752 E461.36148
G1 X136.684 Y101.017 E461.37512
G1 X136.684 Y122.127 E463.05336
G1 X114.964 Y122.127 E464.7801
G1 X104.748 Y122.123 E465.59227
G0 F5563.6 X104.748 Y122.653
G1 F2100 X96.293 Y122.656 E466.26444
G1 X96.028 Y122.656 E466.28551
G1 X96.028 Y122.391 E466.29915
G1 X96.028 Y100.223 E468.0615
G1 X136.949 Y100.222 E471.31472
G1 X137.214 Y100.222 E471.33579
G1 X137.214 Y100.487 E471.34942
G1 X137.214 Y122.657 E473.11194
G1 X114.964 Y122.657 E474.88081
G1 X104.748 Y122.653 E475.69299
G0 F5563.6 X104.748 Y123.148
;TYPE:WALL-OUTER
G1 F1650 X95.798 Y123.151 E476.40451
G1 X95.533 Y123.151 E476.42558
G1 X95.533 Y122.886 E476.43921
G1 X95.533 Y99.728 E478.28027
G1 X137.444 Y99.727 E481.6122
G1 X137.709 Y99.727 E481.63327
G1 X137.709 Y99.992 E481.6469
G1 X137.709 Y123.152 E483.48812
G1 X114.964 Y123.152 E485.29635
G1 X104.748 Y123.148 E486.10852
G0 F5563.6 X104.448 Y123.148
G0 X104.448 Y122.553
G0 X104.748 Y121.603
;TYPE:SKIN
G1 F1500 X97.078 Y121.606 E486.71828
G1 X97.078 Y101.273 E488.33476
G1 X136.164 Y101.272 E491.44209
G1 X136.164 Y121.607 E493.05873
G1 X114.964 Y121.607 E494.74413
G1 X104.748 Y121.603 E495.5563
G0 F5563.6 X97.315 Y102.06
G1 F1500 X97.865 Y101.51 E495.61814
G0 F5563.6 X98.615 Y101.51
G1 F1500 X97.315 Y102.809 E495.76424
G0 F5563.6 X97.315 Y103.559
G1 F1500 X99.364 Y101.51 E495.99461
G0 F5563.6 X100.114 Y101.51
G1 F1500 X97.315 Y104.308 E496.30924
G0 F5563.6 X97.315 Y105.058
G1 F1500 X100.863 Y101.51 E496.70814
G0 F5563.6 X101.613 Y101.51
G1 F1500 X97.315 Y105.807 E497.19131
G0 F5563.6 X97.315 Y106.557
G1 F1500 X102.362 Y101.51 E497.75875
G0 F5563.6 X103.112 Y101.51
G1 F1500 X97.315 Y107.306 E498.41045
G0 F5563.6 X97.315 Y108.056
G1 F1500 X103.861 Y101.51 E499.14641
G0 F5563.6 X104.611 Y101.51
G1 F1500 X97.315 Y108.806 E499.9667
G0 F5563.6 X97.315 Y109.555
G1 F1500 X105.361 Y101.51 E500.87126
G0 F5563.6 X106.11 Y101.51
G1 F1500 X97.315 Y110.305 E501.86008
G0 F5563.6 X97.315 Y111.054
G1 F1500 X106.86 Y101.51 E502.93317
G0 F5563.6 X107.609 Y101.51
G1 F1500 X97.315 Y111.804 E504.09052
G0 F5563.6 X97.315 Y112.553
G1 F1500 X108.359 Y101.51 E505.33214
G0 F5563.6 X109.108 Y101.51
G1 F1500 X97.315 Y113.303 E506.65803
G0 F5563.6 X97.315 Y114.052
G1 F1500 X109.858 Y101.51 E508.06818
G0 F5563.6 X110.607 Y101.51
G1 F1500 X97.315 Y114.802 E509.5626
G0 F5563.6 X97.315 Y115.551
G1 F1500 X111.357 Y101.51 E511.14129
G0 F5563.6 X112.106 Y101.51
G1 F1500 X97.315 Y116.301 E512.80424
G0 F5563.6 X97.315 Y117.05
G1 F1500 X112.856 Y101.51 E514.55146
G0 F5563.6 X113.605 Y101.51
G1 F1500 X97.315 Y117.8 E516.38294
G0 F5563.6 X97.315 Y118.549
G1 F1500 X114.355 Y101.51 E518.29869
G0 F5563.6 X115.104 Y101.51
G1 F1500 X97.315 Y119.299 E520.29871
G0 F5563.6 X97.315 Y120.049
G1 F1500 X115.854 Y101.51 E522.38305
G0 F5563.6 X116.604 Y101.51
G1 F1500 X97.315 Y120.798 E524.55165
G0 F5563.6 X97.496 Y121.367
G1 F1500 X117.353 Y101.51 E526.78418
G0 F5563.6 X118.103 Y101.51
G1 F1500 X98.246 Y121.367 E529.0167
G0 F5563.6 X98.995 Y121.367
G1 F1500 X118.852 Y101.51 E531.24922
G0 F5563.6 X119.602 Y101.51
G1 F1500 X99.745 Y121.366 E533.48169
G0 F5563.6 X100.495 Y121.366
G1 F1500 X120.351 Y101.51 E535.7141
G0 F5563.6 X121.101 Y101.51
G1 F1500 X101.245 Y121.365 E537.94645
G0 F5563.6 X101.995 Y121.365
G1 F1500 X121.85 Y101.51 E540.17875
G0 F5563.6 X122.6 Y101.51
G1 F1500 X102.744 Y121.365 E542.4111
G0 F5563.6 X103.494 Y121.364
G1 F1500 X123.349 Y101.51 E544.64334
G0 F5563.6 X124.099 Y101.51
G1 F1500 X104.244 Y121.364 E546.87558
G0 F5563.6 X104.994 Y121.364
G1 F1500 X124.848 Y101.51 E549.10777
G0 F5563.6 X125.598 Y101.51
G1 F1500 X105.743 Y121.364 E551.34001
G0 F5563.6 X106.492 Y121.365
G1 F1500 X126.347 Y101.51 E553.5723
G0 F5563.6 X127.097 Y101.51
G1 F1500 X107.241 Y121.365 E555.80466
G0 F5563.6 X107.991 Y121.365
G1 F1500 X127.847 Y101.51 E558.03701
G0 F5563.6 X128.596 Y101.51
G1 F1500 X108.74 Y121.366 E560.26942
G0 F5563.6 X109.489 Y121.366
G1 F1500 X129.346 Y101.51 E562.50189
G0 F5563.6 X130.095 Y101.51
G1 F1500 X110.238 Y121.367 E564.73441
G0 F5563.6 X110.988 Y121.367
G1 F1500 X130.845 Y101.51 E566.96693
G0 F5563.6 X131.594 Y101.51
G1 F1500 X111.737 Y121.367 E569.19945
G0 F5563.6 X112.486 Y121.367
G1 F1500 X132.344 Y101.51 E571.43203
G0 F5563.6 X133.093 Y101.51
G1 F1500 X113.236 Y121.367 E573.66455
G0 F5563.6 X113.984 Y121.368
G1 F1500 X133.843 Y101.51 E575.89724
G0 F5563.6 X134.592 Y101.51
G1 F1500 X114.734 Y121.368 E578.12988
G0 F5563.6 X115.483 Y121.369
G1 F1500 X135.342 Y101.51 E580.36263
G0 F5563.6 X135.925 Y101.677
G1 F1500 X116.232 Y121.369 E582.57665
G0 F5563.6 X116.982 Y121.369
G1 F1500 X135.925 Y102.426 E584.70641
G0 F5563.6 X135.925 Y103.176
G1 F1500 X117.731 Y121.369 E586.75191
G0 F5563.6 X118.481 Y121.369
G1 F1500 X135.925 Y103.925 E588.71314
G0 F5563.6 X135.925 Y104.675
G1 F1500 X119.23 Y121.369 E590.5901
G0 F5563.6 X119.98 Y121.369
G1 F1500 X135.925 Y105.424 E592.3828
G0 F5563.6 X135.925 Y106.174
G1 F1500 X120.729 Y121.369 E594.09123
G0 F5563.6 X121.479 Y121.369
G1 F1500 X135.925 Y106.923 E595.71539
G0 F5563.6 X135.925 Y107.673
G1 F1500 X122.229 Y121.369 E597.25523
